src/images/linkedin.svg

<svg width="47" height="47" viewBox="0 0 47 47" fill="none" xmlns="http://www.w3.org/2000/svg">
<path d="M12.2319 42H3.25879V15.9985H12.2319V42ZM3.0293 9.52686C3.0293 8.1805 3.40413 7.17839 4.15381 6.52051C4.90348 5.86263 6.11214 5.53369 7.77979 5.53369C9.44743 5.53369 10.6637 5.87028 11.4287 6.54346C12.1937 7.21663 12.5762 8.2111 12.5762 9.52686C12.5762 12.1584 10.9774 13.4741 7.77979 13.4741C4.61279 13.4741 3.0293 12.1584 3.0293 9.52686ZM34.9058 42V27.8174C34.9058 26.0885 34.6533 24.7881 34.1484 23.916C33.6589 23.0286 32.8633 22.585 31.7617 22.585C30.2471 22.585 29.1532 23.1893 28.48 24.3979C27.8068 25.6066 27.4702 27.6797 27.4702 30.6172V42H18.4971V15.9985H25.2671L26.3916 19.2114H26.9194C27.6844 17.9875 28.7401 17.0695 30.0864 16.4575C31.4481 15.8455 33.0086 15.5396 34.7681 15.5396C37.6444 15.5396 39.8781 16.3734 41.4692 18.041C43.0757 19.7087 43.8789 22.0571 43.8789 25.0864V42H34.9058Z" fill="#1EA5AD"/>
</svg>

<svg xmlns="http://www.w3.org/2000/svg" width="47" height="47" fill="none" xmlns:v="https://vecta.io/nano"><path d="M12.232 42H3.259V15.999h8.973V42zM3.029 9.527c0-1.346.375-2.348 1.125-3.006s1.958-.987 3.626-.987 2.884.337 3.649 1.01 1.148 1.668 1.148 2.983c0 2.632-1.599 3.947-4.796 3.947-3.167 0-4.75-1.316-4.75-3.947zM34.906 42V27.817c0-1.729-.252-3.029-.757-3.901-.489-.887-1.285-1.331-2.387-1.331-1.515 0-2.609.604-3.282 1.813s-1.01 3.282-1.01 6.219V42h-8.973V15.999h6.77l1.125 3.213h.528a7.12 7.12 0 0 1 3.167-2.754c1.362-.612 2.922-.918 4.682-.918 2.876 0 5.11.834 6.701 2.501 1.606 1.668 2.41 4.016 2.41 7.045V42h-8.973z" fill="#1ea5ad"/></svg>
